X: 10881
Q: "Moderate, with feeling."
M: 6/8
L: 1/8
K: Bb
g>fg f2f | {f}ede dBc | d>cB BGF | (GBc) B2 |]
g>fg f2f | ede d2B/c/ | d>cB BGF | GBB B2 |]


